X: 133
T: No_59_Song_of_Giving_Away_the_Drum.krn
%%abc-version 2.0
%%abcx-abcm2ps-target-version 5.9.1 (29 Sep 2008)
%%abc-creator hum2abc beta
%%abcx-conversion-date 2020/08/10 18:54:57
%%gracespace 0 6 6
%%humdrum-veritas 4158445078
%%humdrum-veritas-data 1665687588
%%linebreak <none>
%%barnumbers 0
L: 1/8
M: 2/4
%%staves {1 2}
V: 1 clef=bass
V: 2 clef=bass
K: G
[V:1] E/ [I:setbarnb 1]| 
[V:2] z/ | 
[V:1] E2FE | 
[V:2] G,,G,, G,,G,, | 
[V:1] D>B, B,3/D/ | 
[V:2] G,,G,, G,,G,, | 
[V:1] DD- D3/B,/ | 
[V:2] z4 | 
[V:1] B,>B,- B,3/B,/ | 
[V:2] z4 | 
[V:1] B,7/E/ | 
[V:2] z4 | 
[V:1] E2FE | 
[V:2] z4 | 
[V:1] D>B, B,3/D/ | 
[V:2] z4 | 
[V:1] DD- D3/B,/ | 
[V:2] z4 | 
[V:1] B,>B,- B,3/B,/ | 
[V:2] z4 | 
[V:1] B,7/B,/ | 
[V:2] z4 | 
[V:1] B,>D D/B,3/ | 
[V:2] z4 | 
[V:1] B,<A, G,3/E,/ | 
[V:2] z4 | 
[V:1] G,<E, D,/D,3/ ||  
[V:2] z4 ||  
[V:1] [M:3/4]D,<D, D,>D, D,3/E,/ ||  
[V:2] [M:3/4]z6 ||  
[V:1] [M:2/4]E,2G,E, | 
[V:2] [M:2/4]z4 | 
[V:1] D,>B,,B,,2 | 
[V:2] z4 | 
[V:1] D,D, D,3/B,,/ | 
[V:2] z4 | 
[V:1] B,,>B,,B,,2- | 
[V:2] z4 | 
[V:1] B,,7/z/ |]  
[V:2] z4 |]  


